icons/empathize-fill.svg

<svg xmlns="http://www.w3.org/2000/svg" width="24" height="24" fill="none"><g clip-path="url(#a)"><g><path fill="#121212" d="M18.3643 10.98C19.9263 12.541 19.9263 15.074 18.3643 16.636L12.7073 22.293C12.3173 22.683 11.6833 22.683 11.2933 22.293L5.63634 16.636C4.07434 15.074 4.07434 12.541 5.63634 10.979C7.19834 9.417 9.73134 9.417 11.2933 10.979L11.9993 11.686L12.7073 10.979C14.2693 9.417 16.8023 9.417 18.3643 10.979V10.98ZM12.0003 1C14.2103 1 16.0003 2.79 16.0003 5C16.0003 7.21 14.2103 9 12.0003 9C9.79034 9 8.00034 7.21 8.00034 5C8.00034 2.79 9.79034 1 12.0003 1Z"/></g></g><defs><clipPath id="a"><rect width="24" height="24" fill="white"/></clipPath></defs></svg>

<svg width="24" height="24" fill="none" xmlns="http://www.w3.org/2000/svg"><g clip-path="url(#a)"><path d="M18.364 10.98a4 4 0 0 1 0 5.656l-5.657 5.657a1 1 0 0 1-1.414 0l-5.657-5.657a4 4 0 0 1 5.657-5.657l.706.707.708-.707a4 4 0 0 1 5.657 0v.001ZM12 1c2.21 0 4 1.79 4 4s-1.79 4-4 4-4-1.79-4-4 1.79-4 4-4Z" /></g><defs><clipPath id="a"><path fill="#fff" d="M0 0h24v24H0z"/></clipPath></defs></svg>
